X: 47
T: Piano Sonata No. 11 in A major, K 331 (300i), mvmt. 1e
C: Wolfgang Amadeus Mozart
%%abc-version 2.0
%%abcx-abcm2ps-target-version 5.9.1 (29 Sep 2008)
%%abc-creator hum2abc beta
%%abcx-conversion-date 2021/01/14 17:01:32
%%abc-copyright 2018 Craig Stuart Sapp
%%abc-edited-by Craig Stuart Sapp
%%abc-edited-by Craig Stuart Sapp
%%abcx-initial-encoding-date 2009/09/29
%%gracespace 0 6 6
%%humdrum-veritas 3020768516
%%humdrum-veritas-data 1486290307
%%linebreak <none>
%%barnumbers 0
L: 1/16
M: 6/8
N: Derived from sonata11-1e.krn
Q: "Variation IV" 1/8=144
%%staves {1 2}
V: 1 clef=treble
V: 2 clef=bass
K: A
[V:1] x2 [a2c'2][b2d'2] [c'2e'2][b2d'2][a2c'2] & [Ac]E[Ac]E[Bd]E [ce]E[Bd]E[Ac]E | 
[V:2] [A,,2A,2]x4x6 | 
[V:1] x2 [g2b2][a2c'2] [b2d'2][a2c'2][g2b2] & [GB]E[GB]E[Ac]E [Bd]E[Ac]E[GB]E | 
[V:2] [E,,2E,2]x4x6 | 
[V:1] x2 a2 x2 x2 b2 x2 & [EA]C[EA]C[EA]C [GB]E[GB]E[GB]E | 
[V:2] [A,,2A,2] x2 [A,,2A,2] [E,,2E,2] x2 [E,,2E,2] | 
[V:1] [a2c'2][b2d'2][a2c'2] [g2b2]x4 & [Ac]E[Bd]E[Ac]E [GB]E^dede | 
[V:2] x4>x4 E2E,2 | 
[V:1] x2 [a2c'2][b2=d'2] [c'2e'2][b2d'2][a2c'2] & [Ac]E[Ac]E[B=d]E [ce]E[Bd]E[Ac]E | 
[V:2] [A,,2A,2]x4x6 | 
[V:1] x2 [g2b2][a2c'2] [b2d'2][a2c'2][g2b2] & [GB]E[GB]E[Ac]E [Bd]E[Ac]E[GB]E | 
[V:2] [E,,2E,2]x4x6 | 
[V:1] x2 [c2a2][e2b2] [a2c'2]x4 & [EA]C[EA]C[GB]E [Ac]E[Ac]F[Bd]F | 
[V:2] [A,,2A,2]x4x2 [F,,2F,2][D,,2D,2] | 
[V:1] x2 [a2c'2][g2b2] a2x4 & [Ac]E[Ac]E[GB]E .A.E.C.EA2 :|]|:  
[V:2] [E,,2E,2]x4x2 A,2A,,2 :|]|:  
[V:1] e3f/e/ d/c/B/A/ ^ef.f2 z2 | 
[V:2] A,CECEC A,DFDFD | 
[V:1] agbagf ^d=e.e2 z2 | 
[V:2] A,DFDFD A,CECEC | 
[V:1] e3f/e/ d/c/B/A/ ed2e/d/ c/B/A/G/ | 
[V:2] [A,,2C,2][A,2C2] z2 [B,,2D,2][B,2D2] z2 | 
[V:1] A2G2A2[A4c4][G2B2] & x4^D2E6 | 
[V:2] x6[A,4C4][G,2B,2] & [C2E2][B,2D2][A,2C2]E,6 | 
[V:1] x2 [a2c'2][b2d'2] [c'2e'2][b2d'2][a2c'2] & [Ac]E[Ac]E[Bd]E [ce]E[Bd]E[Ac]E | 
[V:2] [A,,2A,2]x4x6 | 
[V:1] x2 [g2b2][a2c'2] [b2d'2][a2c'2][g2b2] & [GB]E[GB]E[Ac]E [Bd]E[Ac]E[GB]E | 
[V:2] [E,,2E,2]x4x6 | 
[V:1] x2 [c2a2][e2b2] [a2c'2]x4 & [EA]C[EA]C[GB]E [Ac]E[Ac]F[Bd]F | 
[V:2] [A,,2A,2]x4x2 [F,,2F,2][D,,2D,2] | 
[V:1] x2 [a2c'2][g2b2] b2^b2c'2 & [Ac]E[Ac]E[GB]Eg4a2 | 
[V:2] [E,,2E,2]x4x6 | 
[V:1] x2 [a2c'2][=b2d'2] [c'2e'2]x4 & [Ac]E[Ac]E[=Bd]E [ce]A[ce]A[df]A | 
[V:2] [A,,2A,2]x4x2 [A,,2A,2][D,,2D,2] | 
[V:1] x2 [a2c'2][g2b2] a2x4 & [Ac]E[Ac]E[GB]E .A.E.C.EA2 :|]  
[V:2] [E,,2E,2]x4x2 A,2A,,2 :|]  


